src/img/services-landscape..svg

<svg width="38" height="38" viewBox="0 0 38 38" fill="none" xmlns="http://www.w3.org/2000/svg">
<path d="M34.4672 28.0669C34.7618 28.0669 35.0005 27.8281 35.0005 27.5336C35.0005 27.239 34.7617 27.0003 34.4672 27.0003H33.9339C33.9339 26.7057 33.6952 26.4669 33.4006 26.4669C33.106 26.4669 32.8673 26.7057 32.8673 27.0003H24.3339C24.3339 26.7057 24.0951 26.4669 23.8006 26.4669C23.506 26.4669 23.2672 26.7057 23.2672 27.0003H22.7339C22.4394 27.0003 22.2006 27.2391 22.2006 27.5336C22.2006 27.8281 22.4394 28.0669 22.7339 28.0669H23.2672V29.6669H22.7339C22.4394 29.6669 22.2006 29.9056 22.2006 30.2002C22.2006 30.4948 22.4394 30.7335 22.7339 30.7335H23.2672V31.2668H22.7339C22.4394 31.2668 22.2006 31.5056 22.2006 31.8002C22.2006 32.0947 22.4394 32.3335 22.7339 32.3335H23.2672V33.9335H14.2004V29.521C14.9894 29.9655 15.8795 30.1995 16.7851 30.2001C19.8138 30.1565 22.236 27.6701 22.2005 24.6412C22.2169 22.5354 21.041 20.6013 19.1637 19.647C19.7817 18.8056 20.1128 17.7878 20.1083 16.7438C20.1268 14.4399 18.5107 12.4456 16.2528 11.9865C16.8241 10.7266 16.7259 9.26423 15.9912 8.09209C15.2566 6.9199 13.9833 6.19396 12.6004 6.1589C12.5846 6.1589 12.5693 6.16115 12.5536 6.16133C12.2696 4.32589 10.6792 2.97863 8.82204 3.00026C6.96491 3.02188 5.40634 4.40589 5.16521 6.24746C3.8147 6.50634 2.88239 7.74972 3.01233 9.11872C3.14226 10.4877 4.29189 11.5334 5.66709 11.5335H8.77592C8.82404 11.6869 8.8811 11.8373 8.94679 11.984C6.68903 12.4447 5.07365 14.4397 5.09259 16.7439C5.08802 17.7878 5.41915 18.8056 6.03709 19.647C4.15989 20.6015 2.98395 22.5355 3.00039 24.6413C2.96476 27.6701 5.38702 30.1566 8.41579 30.2002C9.32136 30.1995 10.2115 29.9656 11.0004 29.521V33.9335H3.53377C3.2392 33.9335 3.00045 34.1723 3.00045 34.4669C3.00045 34.7614 3.2392 35.0002 3.53377 35.0002H34.4672C34.7618 35.0002 35.0005 34.7614 35.0005 34.4669C35.0005 34.1723 34.7617 33.9335 34.4672 33.9335H33.9339V32.3335H34.4672C34.7618 32.3335 35.0005 32.0948 35.0005 31.8002C35.0005 31.5056 34.7617 31.2669 34.4672 31.2669H33.9339V30.7336H34.4672C34.7618 30.7336 35.0005 30.4948 35.0005 30.2003C35.0005 29.9057 34.7617 29.667 34.4672 29.667H33.9339V28.0669H34.4672V28.0669ZM8.57985 10.2824C8.57985 10.3444 8.58685 10.4052 8.5896 10.4668H5.66709C4.78346 10.4668 4.06708 9.75048 4.06708 8.86679C4.06708 7.98309 4.78346 7.26678 5.66709 7.26678C5.80853 7.26684 5.94422 7.21065 6.04428 7.11059C6.14428 7.01059 6.20047 6.8749 6.20047 6.7334C6.19772 5.34152 7.26791 4.18264 8.6556 4.07476C10.0433 3.96682 11.2797 4.94639 11.4922 6.32196C9.75273 6.85328 8.56854 8.46366 8.57985 10.2824ZM13.1338 33.9336H12.0671V28.737C12.2582 28.559 12.4365 28.3676 12.6004 28.1643C12.7644 28.3676 12.9426 28.559 13.1338 28.7369V33.9336H13.1338ZM13.1986 27.1563L16.7109 23.6439C16.916 23.4351 16.9144 23.1001 16.7075 22.8932C16.5006 22.6862 16.1656 22.6847 15.9568 22.8898L13.1338 25.7127V20.2877L15.6442 17.7773C15.8502 17.5686 15.8492 17.2328 15.6418 17.0255C15.4345 16.8181 15.0987 16.8171 14.89 17.0231L13.1338 18.7793V16.3335C13.1338 16.0389 12.8949 15.8002 12.6004 15.8002C12.3059 15.8002 12.0671 16.039 12.0671 16.3335V18.7793L10.3109 17.0231C10.1022 16.8171 9.76642 16.8181 9.55905 17.0255C9.35167 17.2328 9.35067 17.5686 9.55667 17.7773L12.0671 20.2877V25.7127L9.24411 22.8898C9.03548 22.6838 8.69967 22.6849 8.49229 22.8922C8.28498 23.0995 8.28391 23.4354 8.48992 23.644L12.0022 27.1563C11.2214 28.3831 9.86986 29.1282 8.41567 29.1336C5.97578 29.0906 4.03071 27.0814 4.06696 24.6414C4.04433 22.7118 5.26396 20.986 7.09041 20.3632C7.26697 20.305 7.40047 20.1591 7.44272 19.978C7.48497 19.797 7.42978 19.607 7.29722 19.4767C6.56409 18.757 6.15359 17.7712 6.15922 16.7439C6.12434 14.7088 7.73379 13.0247 9.76836 12.9673C9.98855 12.9867 10.199 12.8727 10.303 12.6777C10.3939 12.4984 10.3761 12.2832 10.2569 12.1214C9.86161 11.5897 9.64761 10.945 9.64648 10.2824C9.62048 8.62347 10.9416 7.25634 12.6004 7.22559C14.2592 7.25634 15.5803 8.62347 15.5543 10.2824C15.5531 10.945 15.3391 11.5897 14.9438 12.1214C14.8271 12.2846 14.8124 12.4997 14.9061 12.6772C15.0003 12.8572 15.1869 12.9699 15.3902 12.9694C17.4395 13.0062 19.0726 14.6944 19.0415 16.7439C19.0472 17.7712 18.6366 18.757 17.9035 19.4767C17.7709 19.607 17.7158 19.797 17.758 19.978C17.8003 20.1591 17.9338 20.305 18.1103 20.3632C20.1587 21.0795 21.4074 23.1521 21.0832 25.2977C20.7589 27.4434 18.9537 29.0546 16.7851 29.1336C15.3309 29.1282 13.9794 28.3831 13.1986 27.1563ZM32.8672 33.9336H24.3339V32.3336H32.8672V33.9336ZM32.8672 31.2669H24.3339V30.7336H32.8672V31.2669ZM32.8672 29.6669H24.3339V28.0669H32.8672V29.6669Z" fill="white"/>
<path d="M25.9337 16.3334H32.3337C33.7089 16.3333 34.8585 15.2876 34.9885 13.9186C35.1184 12.5496 34.1861 11.3063 32.8355 11.0474C32.5915 9.18931 31.0078 7.80005 29.1337 7.80005C27.2596 7.80005 25.6759 9.18931 25.4319 11.0474C24.0813 11.3063 23.149 12.5496 23.2789 13.9186C23.4089 15.2876 24.5585 16.3333 25.9337 16.3334ZM25.9337 12.0667C26.0751 12.0668 26.2108 12.0106 26.3109 11.9105C26.4109 11.8105 26.4671 11.6748 26.4671 11.5333C26.4671 10.0606 27.661 8.86662 29.1338 8.86662C30.6065 8.86662 31.8005 10.0605 31.8005 11.5333C31.8004 11.6748 31.8566 11.8104 31.9567 11.9105C32.0567 12.0105 32.1924 12.0667 32.3339 12.0667C33.2175 12.0667 33.9339 12.7831 33.9339 13.6667C33.9339 14.5503 33.2176 15.2667 32.3339 15.2667H25.9338C25.0502 15.2667 24.3338 14.5504 24.3338 13.6667C24.3338 12.783 25.05 12.0667 25.9337 12.0667Z" fill="white"/>
</svg>

<svg width="38" height="38" fill="none" xmlns="http://www.w3.org/2000/svg"><path d="M34.467 28.067a.533.533 0 1 0 0-1.067h-.533a.533.533 0 1 0-1.067 0h-8.533a.533.533 0 1 0-1.067 0h-.533a.533.533 0 0 0 0 1.067h.533v1.6h-.533a.533.533 0 1 0 0 1.066h.533v.534h-.533a.533.533 0 0 0 0 1.067h.533v1.6H14.2V29.52a5.3 5.3 0 0 0 2.585.68 5.495 5.495 0 0 0 5.416-5.56 5.554 5.554 0 0 0-3.037-4.994c.618-.841.949-1.86.944-2.903a4.815 4.815 0 0 0-3.855-4.758A4.125 4.125 0 0 0 12.6 6.16l-.046.002a3.732 3.732 0 0 0-7.389.086 2.667 2.667 0 0 0 .502 5.287h3.109c.048.153.105.303.17.45a4.818 4.818 0 0 0-3.853 4.76 4.869 4.869 0 0 0 .944 2.903A5.554 5.554 0 0 0 3 24.641a5.495 5.495 0 0 0 5.416 5.56 5.283 5.283 0 0 0 2.584-.68v4.413H3.534a.533.533 0 0 0 0 1.066h30.933a.533.533 0 1 0 0-1.066h-.533v-1.6h.533a.533.533 0 1 0 0-1.067h-.533v-.533h.533a.533.533 0 1 0 0-1.067h-.533v-1.6h.533ZM8.58 10.282c0 .062.007.123.01.185H5.667a1.6 1.6 0 0 1 0-3.2.533.533 0 0 0 .533-.534 2.661 2.661 0 0 1 5.292-.411 4.114 4.114 0 0 0-2.912 3.96Zm4.554 23.652h-1.067v-5.197c.191-.178.37-.37.533-.573.164.204.343.395.534.573v5.197Zm.065-6.778 3.512-3.512a.533.533 0 0 0-.754-.754l-2.823 2.823v-5.425l2.51-2.51a.533.533 0 0 0-.754-.755l-1.756 1.756v-2.445a.533.533 0 0 0-1.067 0v2.445l-1.756-1.756a.533.533 0 0 0-.754.754l2.51 2.51v5.426L9.244 22.89a.533.533 0 0 0-.754.754l3.512 3.512a4.27 4.27 0 0 1-3.586 1.978 4.427 4.427 0 0 1-4.349-4.493 4.465 4.465 0 0 1 3.023-4.278.533.533 0 0 0 .207-.886 3.8 3.8 0 0 1-1.138-2.733 3.714 3.714 0 0 1 3.61-3.777.532.532 0 0 0 .489-.846 3.091 3.091 0 0 1-.612-1.839A3.01 3.01 0 0 1 12.6 7.226a3.01 3.01 0 0 1 2.954 3.056 3.092 3.092 0 0 1-.61 1.84.53.53 0 0 0-.038.555c.094.18.28.293.484.292a3.719 3.719 0 0 1 3.651 3.775 3.8 3.8 0 0 1-1.137 2.733.533.533 0 0 0 .206.886 4.513 4.513 0 0 1-1.325 8.77 4.27 4.27 0 0 1-3.586-1.977Zm19.668 6.778h-8.533v-1.6h8.533v1.6Zm0-2.667h-8.533v-.533h8.533v.533Zm0-1.6h-8.533v-1.6h8.533v1.6Zm-6.933-13.334h6.4a2.667 2.667 0 0 0 .502-5.286 3.734 3.734 0 0 0-7.404 0 2.667 2.667 0 0 0 .502 5.286Zm0-4.266a.533.533 0 0 0 .533-.534 2.667 2.667 0 0 1 5.334 0 .533.533 0 0 0 .533.534 1.6 1.6 0 0 1 0 3.2h-6.4a1.6 1.6 0 0 1 0-3.2Z" fill="#fff"/></svg>
